X:71
T:Jacobite War Song, The
T:Eiridh na Fineacha' Gaidhealach
R:March
S:Simon Fraser Collection
N:No.2
O:Scottish
M:C
L:1/8
K:D
A|F2 FA E2 DC|D2 FA d2 ze|f2 ed c2 BA|F2 B>^A B2 zF|
A2 A>B A2 GF|A2 Bc d2 zc|B2 AF A2 A,>C|D2 E>C D2 z:|
|:A|FAGF EGFE|D2 FA d2 zg|f2 ed c2 BA|F2 B>^A B2 zF/G/|
AdcB AGFG|A2 Bc d2 zg|f>edB A2 A,>C|D2 E>C D2 z:|

